X: 2918
T: Barrack Hill
R: slide
M: 12/8
K: Gmajor
eA AB/d/|ed Bd|eA AB/A/|G>A Bd|
eA AB/d/|BA/B/ dB|BG/B/ dB|A3:|
ef/g/ a>b|ag ed|Bc/d/ e>f|ga fg|
ea a>b|ag ed|BA/B/ d>B|A3:|

